X:2
T:Megan's Request
R:Reel
C:Trad., Arranged by Abraham McCarty
M:C
L:1/8
K:D
Z:Transcribed 19 October, 2016 by Stephen Beitzel
[|: {g}eA{d}Ae {gAGAG}A2 {g}eA | {g}GgdB {g}de{g}e{A}e | {g}eA{d}Ae {gAGAG}A2 {g}eA | {g}GgdB {g}BA {gAGAG}A2 :|]
[|: {g}Gd{G}dG {g}d{G}d{g}Gd | {g}eG{g}dB {g}de{g}e{A}e | {g}Gd{G}dG {g}d{G}d{g}Gd |1 {g}eG{g}dB {g}BA {gAGAG}A2 :|]
|2 {g}e2 |]